src/Assets/tomato.svg

<?xml version="1.0" encoding="UTF-8" standalone="no" ?>
<!DOCTYPE svg PUBLIC "-//W3C//DTD SVG 1.1//EN" "http://www.w3.org/Graphics/SVG/1.1/DTD/svg11.dtd">
<svg xmlns="http://www.w3.org/2000/svg" xmlns:xlink="http://www.w3.org/1999/xlink" version="1.1" width="198" height="22" viewBox="0 0 198 22" xml:space="preserve">
<desc>Created with Fabric.js 3.6.3</desc>
<defs>
</defs>
<g transform="matrix(1 0 0 1 98 -65)"  >
<g style=""   >
		<g transform="matrix(0.1 0 0 -0.1 1.13 76.67)" id="slqhSUyahz5t3qQYyXIwE"  >
<path style="stroke: none; stroke-width: 1; stroke-dasharray: none; stroke-linecap: butt; stroke-dashoffset: 0; stroke-linejoin: miter; stroke-miterlimit: 4; fill: rgb(209,70,36); fill-rule: nonzero; opacity: 1;" vector-effect="non-scaling-stroke"  transform=" translate(-2410, -1358.61)" d="M 1450 1278.61 L 3370 1278.61 L 3370 1438.61 L 1450 1438.61 Z" stroke-linecap="round" />
</g>
		<g transform="matrix(0.1 0 0 -0.1 1.13 76.67)" id="dMZ1GS9ycNV2V2I1D9oNQ"  >
<path style="stroke: none; stroke-width: 1; stroke-dasharray: none; stroke-linecap: butt; stroke-dashoffset: 0; stroke-linejoin: miter; stroke-miterlimit: 4; fill: rgb(9,16,25); fill-rule: nonzero; opacity: 1;" vector-effect="non-scaling-stroke"  transform=" translate(-2410, -1358.61)" d="M 3370 1438.61 L 3370 1468.61 L 1450 1468.61 C 1442.1 1468.61 1434.37 1465.4099999999999 1428.79 1459.82 C 1423.2 1454.23 1420 1446.51 1420 1438.61 L 1420 1278.61 C 1420 1270.7099999999998 1423.2 1262.9799999999998 1428.79 1257.3899999999999 C 1434.37 1251.81 1442.1 1248.61 1450 1248.61 L 3370 1248.61 C 3377.9 1248.61 3385.63 1251.81 3391.21 1257.3899999999999 C 3396.8 1262.9799999999998 3400 1270.7099999999998 3400 1278.61 L 3400 1438.61 C 3400 1446.51 3396.8 1454.2299999999998 3391.21 1459.82 C 3385.63 1465.4099999999999 3377.9 1468.61 3370 1468.61 L 3370 1438.61 L 3340 1438.61 L 3340 1308.61 L 1480 1308.61 L 1480 1408.61 L 3370 1408.61 L 3370 1438.61 L 3340 1438.61 L 3370 1438.61" stroke-linecap="round" />
</g>
		<g transform="matrix(0.1 0 0 -0.1 -46.37 76.67)" id="sY77jy_DehGlBiAI1yYNU"  >
<path style="stroke: none; stroke-width: 1; stroke-dasharray: none; stroke-linecap: butt; stroke-dashoffset: 0; stroke-linejoin: miter; stroke-miterlimit: 4; fill: rgb(209,70,36); fill-rule: nonzero; opacity: 1;" vector-effect="non-scaling-stroke"  transform=" translate(-1935, -1358.61)" d="M 1450 1278.61 L 2420 1278.61 L 2420 1438.61 L 1450 1438.61 z" stroke-linecap="round" />
</g>
		<g transform="matrix(0.1 0 0 -0.1 -46.37 76.67)" id="qAY741vP78yb67y4d9FA1"  >
<path style="stroke: none; stroke-width: 1; stroke-dasharray: none; stroke-linecap: butt; stroke-dashoffset: 0; stroke-linejoin: miter; stroke-miterlimit: 4; fill: rgb(9,16,25); fill-rule: nonzero; opacity: 1;" vector-effect="non-scaling-stroke"  transform=" translate(-1935, -1358.61)" d="M 2420 1438.61 L 2420 1468.61 L 1450 1468.61 C 1442.1 1468.61 1434.37 1465.4099999999999 1428.79 1459.82 C 1423.2 1454.23 1420 1446.51 1420 1438.61 L 1420 1278.61 C 1420 1270.7099999999998 1423.2 1262.9799999999998 1428.79 1257.3899999999999 C 1434.37 1251.81 1442.1 1248.61 1450 1248.61 L 2420 1248.61 C 2427.9 1248.61 2435.63 1251.81 2441.21 1257.3899999999999 C 2446.8 1262.9799999999998 2450 1270.7099999999998 2450 1278.61 L 2450 1438.61 C 2450 1446.51 2446.8 1454.2299999999998 2441.21 1459.82 C 2435.63 1465.4099999999999 2427.9 1468.61 2420 1468.61 L 2420 1438.61 L 2390 1438.61 L 2390 1308.61 L 1480 1308.61 L 1480 1408.61 L 2420 1408.61 L 2420 1438.61 L 2390 1438.61 L 2420 1438.61" stroke-linecap="round" />
</g>
		<g transform="matrix(0.1 0 0 -0.1 -44.87 76.67)" id="LA1POLCQ25ociDFwisQGJ"  >
<path style="stroke: none; stroke-width: 1; stroke-dasharray: none; stroke-linecap: butt; stroke-dashoffset: 0; stroke-linejoin: miter; stroke-miterlimit: 4; fill: rgb(230,123,72); fill-rule: nonzero; opacity: 1;" vector-effect="non-scaling-stroke"  transform=" translate(-1950, -1358.61)" d="M 1890 1308.61 L 2010 1308.61 L 2010 1408.61 L 1890 1408.61 z" stroke-linecap="round" />
</g>
		<g transform="matrix(0.1 0 0 -0.1 -44.87 82.17)" id="WeTmVgPQ7sqaT34X5ZA2A"  >
<path style="stroke: none; stroke-width: 1; stroke-dasharray: none; stroke-linecap: butt; stroke-dashoffset: 0; stroke-linejoin: miter; stroke-miterlimit: 4; fill: rgb(28,49,84); fill-rule: nonzero; opacity: 1;" vector-effect="non-scaling-stroke"  transform=" translate(-1950, -1303.61)" d="M 1890 1298.61 L 2010 1298.61 L 2010 1308.61 L 1890 1308.61 z" stroke-linecap="round" />
</g>
		<g transform="matrix(0.1 0 0 -0.1 -25.37 76.67)" id="DTGGEua-ehPoVhAWeHBje"  >
<path style="stroke: none; stroke-width: 1; stroke-dasharray: none; stroke-linecap: butt; stroke-dashoffset: 0; stroke-linejoin: miter; stroke-miterlimit: 4; fill: rgb(230,123,72); fill-rule: nonzero; opacity: 1;" vector-effect="non-scaling-stroke"  transform=" translate(-2145, -1358.61)" d="M 2120 1308.61 L 2170 1308.61 L 2170 1408.61 L 2120 1408.61 z" stroke-linecap="round" />
</g>
		<g transform="matrix(0.1 0 0 -0.1 -25.37 82.17)" id="wRcmoOf_jqOqZCBkhm3Ju"  >
<path style="stroke: none; stroke-width: 1; stroke-dasharray: none; stroke-linecap: butt; stroke-dashoffset: 0; stroke-linejoin: miter; stroke-miterlimit: 4; fill: rgb(28,49,84); fill-rule: nonzero; opacity: 1;" vector-effect="non-scaling-stroke"  transform=" translate(-2145, -1303.61)" d="M 2120 1298.61 L 2170 1298.61 L 2170 1308.61 L 2120 1308.61 z" stroke-linecap="round" />
</g>
		<g transform="matrix(0.1 0 0 -0.1 54.53 74.19)" id="KBt6eKqdMLUjnHjX6G9VV"  >
<path style="stroke: none; stroke-width: 1; stroke-dasharray: none; stroke-linecap: butt; stroke-dashoffset: 0; stroke-linejoin: miter; stroke-miterlimit: 4; fill: rgb(230,123,72); fill-rule: nonzero; opacity: 1;" vector-effect="non-scaling-stroke"  transform=" translate(-2943.93, -1383.49)" d="M 2930 1358.37 L 2930 1408.61 L 2957.86 1408.61 C 2951.9100000000003 1397.4399999999998 2945.8 1386.31 2939.53 1375.2199999999998 L 2939.53 1374.9199999999998 C 2936.9700000000003 1370.3899999999999 2934.3900000000003 1365.87 2931.78 1361.36 C 2931.19 1360.36 2930.59 1359.36 2930 1358.37" stroke-linecap="round" />
</g>
		<g transform="matrix(0.1 0 0 -0.1 78.32 67.55)" id="OM2-2_GB9GOSs7OJ4enmy"  >
<path style="stroke: none; stroke-width: 1; stroke-dasharray: none; stroke-linecap: butt; stroke-dashoffset: 0; stroke-linejoin: miter; stroke-miterlimit: 4; fill: rgb(7,11,14); fill-rule: nonzero; opacity: 1;" vector-effect="non-scaling-stroke"  transform=" translate(-3181.84, -1449.89)" d="M 2969.7 1431.16 L 2969.6099999999997 1431.16 C 2975.95 1443.5900000000001 2982.0799999999995 1456.0700000000002 2988.0199999999995 1468.6100000000001 L 3354.7599999999993 1468.6100000000001 L 3369.999999999999 1468.6100000000001 L 3369.999999999999 1439.0800000000002 L 2973.709999999999 1439.0800000000002 C 2972.379999999999 1436.43 2971.0499999999993 1433.7900000000002 2969.699999999999 1431.16 M 3374.069999999999 1439.0800000000002 L 3370 1439.0800000000002 L 3370 1468.6100000000001 C 3377.9 1468.6100000000001 3385.63 1465.41 3391.21 1459.8200000000002 C 3392.25 1458.7900000000002 3393.2 1457.68 3394.06 1456.5100000000002 C 3388.72 1449.3900000000003 3381.9 1443.4200000000003 3374.07 1439.0800000000002" stroke-linecap="round" />
</g>
		<g transform="matrix(0.1 0 0 -0.1 80.05 76.67)" id="b2id-5cw2XlLW8H7LGelF"  >
<path style="stroke: none; stroke-width: 1; stroke-dasharray: none; stroke-linecap: butt; stroke-dashoffset: 0; stroke-linejoin: miter; stroke-miterlimit: 4; fill: rgb(187,47,34); fill-rule: nonzero; opacity: 1;" vector-effect="non-scaling-stroke"  transform=" translate(-3199.15, -1358.61)" d="M 3340 1308.61 L 3316.75 1308.61 L 3316.75 1308.61 C 3316.73 1308.61 3316.72 1308.61 3316.7 1308.61 L 3210 1308.61 L 3210 1408.61 L 3160 1408.61 L 3160 1308.61 L 3058.3 1308.61 L 3058.3 1408.61 L 3340 1408.61 L 3340 1308.61" stroke-linecap="round" />
</g>
		<g transform="matrix(0.1 0 0 -0.1 77.76 76.55)" id="N2ieDvi2Q575jmWBMr1gT"  >
<path style="stroke: none; stroke-width: 1; stroke-dasharray: none; stroke-linecap: butt; stroke-dashoffset: 0; stroke-linejoin: miter; stroke-miterlimit: 4; fill: rgb(7,12,15); fill-rule: nonzero; opacity: 1;" vector-effect="non-scaling-stroke"  transform=" translate(-3176.21, -1359.89)" d="M 3390.9 1280.7 L 3384.67 1280.7 C 3376.6 1288.43 3367.2400000000002 1294.94 3356.83 1299.75 C 3344.67 1305.36 3331.02 1308.61 3316.75 1308.61 L 3340 1308.61 L 3340 1408.61 L 3058.3 1408.61 L 3058.3 1415.32 L 2961.52 1415.32 C 2964.28 1420.59 2967.0099999999998 1425.87 2969.7 1431.1599999999999 L 3343.3799999999997 1431.1599999999999 C 3354.5099999999998 1431.1599999999999 3364.97 1434.0299999999997 3374.0699999999997 1439.08 L 3390.8999999999996 1439.08 L 3390.8999999999996 1280.7" stroke-linecap="round" />
</g>
		<g transform="matrix(0.1 0 0 -0.1 51.58 79.19)" id="Va1v-Q1cUVqnuU53LwCSp"  >
<path style="stroke: none; stroke-width: 1; stroke-dasharray: none; stroke-linecap: butt; stroke-dashoffset: 0; stroke-linejoin: miter; stroke-miterlimit: 4; fill: rgb(187,47,34); fill-rule: nonzero; opacity: 1;" vector-effect="non-scaling-stroke"  transform=" translate(-2914.49, -1333.49)" d="M 2930 1308.61 L 2898.99 1308.61 C 2909.6099999999997 1324.9099999999999 2919.9599999999996 1341.4799999999998 2930 1358.37 L 2930 1308.61" stroke-linecap="round" />
</g>
		<g transform="matrix(0.1 0 0 -0.1 73.39 83.07)"  >
<path style="stroke: none; stroke-width: 1; stroke-dasharray: none; stroke-linecap: butt; stroke-dashoffset: 0; stroke-linejoin: miter; stroke-miterlimit: 4; fill: rgb(7,12,15); fill-rule: nonzero; opacity: 1;" vector-effect="non-scaling-stroke"  transform=" translate(-3132.52, -1294.66)" d="M 3384.67 1280.7 L 2880.37 1280.7 C 2886.67 1289.91 2892.88 1299.22 2898.99 1308.6100000000001 L 2930 1308.6100000000001 L 2930 1298.6100000000001 L 3050 1298.6100000000001 L 3050 1304.45 L 3058.3 1304.45 L 3058.3 1308.6100000000001 L 3160 1308.6100000000001 L 3160 1298.6100000000001 L 3210 1298.6100000000001 L 3210 1308.6100000000001 L 3316.7 1308.6100000000001 L 3316.7 1308.6100000000001 C 3316.72 1308.6100000000001 3316.73 1308.6100000000001 3316.75 1308.6100000000001 L 3316.75 1308.6100000000001 C 3331.02 1308.6100000000001 3344.67 1305.3600000000001 3356.83 1299.7500000000002 C 3367.24 1294.9400000000003 3376.6 1288.4300000000003 3384.67 1280.7000000000003" stroke-linecap="round" />
</g>
		<g transform="matrix(0.1 0 0 -0.1 53.61 78.36)" id="g8ic7FNI4NvGLyipkoMBc"  >
<path style="stroke: none; stroke-width: 1; stroke-dasharray: none; stroke-linecap: butt; stroke-dashoffset: 0; stroke-linejoin: miter; stroke-miterlimit: 4; fill: rgb(208,79,47); fill-rule: nonzero; opacity: 1;" vector-effect="non-scaling-stroke"  transform=" translate(-2934.77, -1341.76)" d="M 2939.53 1308.61 L 2930 1308.61 L 2930 1358.37 C 2930.59 1359.36 2931.19 1360.36 2931.78 1361.36 C 2934.3900000000003 1365.87 2936.9700000000003 1370.3899999999999 2939.53 1374.9199999999998 L 2939.53 1308.61" stroke-linecap="round" />
</g>
		<g transform="matrix(0.1 0 0 -0.1 59.13 82.17)" id="WcVbV7Dpa3VAl7DlKafLH"  >
<path style="stroke: none; stroke-width: 1; stroke-dasharray: none; stroke-linecap: butt; stroke-dashoffset: 0; stroke-linejoin: miter; stroke-miterlimit: 4; fill: rgb(15,28,42); fill-rule: nonzero; opacity: 1;" vector-effect="non-scaling-stroke"  transform=" translate(-2990, -1303.61)" d="M 3050 1298.61 L 2930 1298.61 L 2930 1308.61 L 2939.53 1308.61 L 2939.53 1304.4499999999998 L 3050 1304.4499999999998 L 3050 1298.61" stroke-linecap="round" />
</g>
		<g transform="matrix(0.1 0 0 -0.1 77.32 69.02)" id="cAgA_9A6RGu_-i0AYLLDO"  >
<path style="stroke: none; stroke-width: 1; stroke-dasharray: none; stroke-linecap: butt; stroke-dashoffset: 0; stroke-linejoin: miter; stroke-miterlimit: 4; fill: rgb(7,9,10); fill-rule: nonzero; opacity: 1;" vector-effect="non-scaling-stroke"  transform=" translate(-3171.89, -1435.12)" d="M 3343.38 1431.16 L 2969.7 1431.16 C 2971.0499999999997 1433.7900000000002 2972.3799999999997 1436.43 2973.71 1439.0800000000002 L 3370 1439.0800000000002 L 3370 1438.6100000000001 L 3370 1439.0800000000002 L 3374.07 1439.0800000000002 C 3364.9700000000003 1434.0300000000002 3354.51 1431.16 3343.38 1431.16" stroke-linecap="round" />
</g>
		<g transform="matrix(0.1 0 0 -0.1 56.1 71.34)" id="Kdcqi8rkRgc-qpSv6CDAF"  >
<path style="stroke: none; stroke-width: 1; stroke-dasharray: none; stroke-linecap: butt; stroke-dashoffset: 0; stroke-linejoin: miter; stroke-miterlimit: 4; fill: rgb(9,16,25); fill-rule: nonzero; opacity: 1;" vector-effect="non-scaling-stroke"  transform=" translate(-2959.69, -1411.96)" d="M 2957.98 1408.61 L 2957.86 1408.61 C 2959.05 1410.84 2960.23 1413.08 2961.4100000000003 1415.32 L 2961.5200000000004 1415.32 C 2960.3400000000006 1413.08 2959.1600000000003 1410.84 2957.9800000000005 1408.61" stroke-linecap="round" />
</g>
		<g transform="matrix(0.1 0 0 -0.1 55.01 73.36)" id="DCPBaIsn90ABxSILYeLOI"  >
<path style="stroke: none; stroke-width: 1; stroke-dasharray: none; stroke-linecap: butt; stroke-dashoffset: 0; stroke-linejoin: miter; stroke-miterlimit: 4; fill: rgb(230,123,72); fill-rule: nonzero; opacity: 1;" vector-effect="non-scaling-stroke"  transform=" translate(-2948.76, -1391.77)" d="M 2939.53 1374.92 L 2939.53 1375.22 C 2945.8 1386.31 2951.9100000000003 1397.44 2957.86 1408.6100000000001 L 2957.98 1408.6100000000001 C 2951.9900000000002 1397.3300000000002 2945.85 1386.1000000000001 2939.53 1374.92" stroke-linecap="round" />
</g>
		<g transform="matrix(0.1 0 0 -0.1 60.95 76.67)" id="NKHuafkcb8FqjbWGlBCQ_"  >
<path style="stroke: none; stroke-width: 1; stroke-dasharray: none; stroke-linecap: butt; stroke-dashoffset: 0; stroke-linejoin: miter; stroke-miterlimit: 4; fill: rgb(187,47,34); fill-rule: nonzero; opacity: 1;" vector-effect="non-scaling-stroke"  transform=" translate(-3008.14, -1358.61)" d="M 3058.3 1308.61 L 3050 1308.61 L 3050 1408.61 L 2957.98 1408.61 L 2957.98 1408.61 L 3058.3 1408.61 L 3058.3 1308.61" stroke-linecap="round" />
</g>
		<g transform="matrix(0.1 0 0 -0.1 60.95 71.34)" id="DFJCG6GfPQABDj7dH4vha"  >
<path style="stroke: none; stroke-width: 1; stroke-dasharray: none; stroke-linecap: butt; stroke-dashoffset: 0; stroke-linejoin: miter; stroke-miterlimit: 4; fill: rgb(7,12,15); fill-rule: nonzero; opacity: 1;" vector-effect="non-scaling-stroke"  transform=" translate(-3008.14, -1411.96)" d="M 3058.3 1408.61 L 2957.98 1408.61 C 2959.16 1410.84 2960.34 1413.08 2961.52 1415.32 L 3058.3 1415.32 L 3058.3 1408.61" stroke-linecap="round" />
</g>
		<g transform="matrix(0.1 0 0 -0.1 65.55 81.88)" id="P2hatnW5tj-oL4dMWaT0P"  >
<path style="stroke: none; stroke-width: 1; stroke-dasharray: none; stroke-linecap: butt; stroke-dashoffset: 0; stroke-linejoin: miter; stroke-miterlimit: 4; fill: rgb(7,12,15); fill-rule: nonzero; opacity: 1;" vector-effect="non-scaling-stroke"  transform=" translate(-3054.15, -1306.53)" d="M 3050 1304.45 L 3058.3008 1304.45 L 3058.3008 1308.6102 L 3050 1308.6102 Z" stroke-linecap="round" />
</g>
		<g transform="matrix(0.1 0 0 -0.1 59.61 76.67)" id="TCqF3FfV0KvDrdTNrIUHj"  >
<path style="stroke: none; stroke-width: 1; stroke-dasharray: none; stroke-linecap: butt; stroke-dashoffset: 0; stroke-linejoin: miter; stroke-miterlimit: 4; fill: rgb(208,79,47); fill-rule: nonzero; opacity: 1;" vector-effect="non-scaling-stroke"  transform=" translate(-2994.77, -1358.61)" d="M 3050 1308.61 L 2939.53 1308.61 L 2939.53 1374.9199999999998 C 2945.8500000000004 1386.1 2951.9900000000002 1397.33 2957.98 1408.61 L 3050 1408.61 L 3050 1308.61" stroke-linecap="round" />
</g>
		<g transform="matrix(0.1 0 0 -0.1 59.61 81.88)" id="FTEFCRr2Lr_jrdDCk7uoo"  >
<path style="stroke: none; stroke-width: 1; stroke-dasharray: none; stroke-linecap: butt; stroke-dashoffset: 0; stroke-linejoin: miter; stroke-miterlimit: 4; fill: rgb(15,28,42); fill-rule: nonzero; opacity: 1;" vector-effect="non-scaling-stroke"  transform=" translate(-2994.76, -1306.53)" d="M 2939.53 1304.45 L 3049.9990000000003 1304.45 L 3049.9990000000003 1308.6102 L 2939.53 1308.6102 Z" stroke-linecap="round" />
</g>
		<g transform="matrix(0.1 0 0 -0.1 78.63 76.67)" id="k_kUWO4vCx3vLa2pyGrlD"  >
<path style="stroke: none; stroke-width: 1; stroke-dasharray: none; stroke-linecap: butt; stroke-dashoffset: 0; stroke-linejoin: miter; stroke-miterlimit: 4; fill: rgb(208,79,47); fill-rule: nonzero; opacity: 1;" vector-effect="non-scaling-stroke"  transform=" translate(-3185, -1358.61)" d="M 3160 1308.61 L 3210 1308.61 L 3210 1408.61 L 3160 1408.61 z" stroke-linecap="round" />
</g>
		<g transform="matrix(0.1 0 0 -0.1 78.63 82.17)" id="C4XqhwEJ5riC0rL3ZRgVz"  >
<path style="stroke: none; stroke-width: 1; stroke-dasharray: none; stroke-linecap: butt; stroke-dashoffset: 0; stroke-linejoin: miter; stroke-miterlimit: 4; fill: rgb(15,28,42); fill-rule: nonzero; opacity: 1;" vector-effect="non-scaling-stroke"  transform=" translate(-3185, -1303.61)" d="M 3160 1298.61 L 3210 1298.61 L 3210 1308.61 L 3160 1308.61 z" stroke-linecap="round" />
</g>
</g>
</g>
</svg>

<svg height="22" viewBox="0 0 198 22" width="198" xmlns="http://www.w3.org/2000/svg"><g transform="matrix(.1 0 0 -.1 -141.87 147.531)"><path d="m1450 1278.61h1920v160h-1920z" fill="#d14624"/><path d="m3370 1438.61v30h-1920c-7.9 0-15.63-3.2-21.21-8.79-5.59-5.59-8.79-13.31-8.79-21.21v-160c0-7.9 3.2-15.63 8.79-21.22 5.58-5.58 13.31-8.78 21.21-8.78h1920c7.9 0 15.63 3.2 21.21 8.78 5.59 5.59 8.79 13.32 8.79 21.22v160c0 7.9-3.2 15.62-8.79 21.21-5.58 5.59-13.31 8.79-21.21 8.79v-30h-30v-130h-1860v100h1890v30h-30z" fill="#091019"/><path d="m1450 1278.61h970v160h-970z" fill="#d14624"/><path d="m2420 1438.61v30h-970c-7.9 0-15.63-3.2-21.21-8.79-5.59-5.59-8.79-13.31-8.79-21.21v-160c0-7.9 3.2-15.63 8.79-21.22 5.58-5.58 13.31-8.78 21.21-8.78h970c7.9 0 15.63 3.2 21.21 8.78 5.59 5.59 8.79 13.32 8.79 21.22v160c0 7.9-3.2 15.62-8.79 21.21-5.58 5.59-13.31 8.79-21.21 8.79v-30h-30v-130h-910v100h940v30h-30z" fill="#091019"/><path d="m1890 1308.61h120v100h-120z" fill="#e67b48"/><path d="m1890 1298.61h120v10h-120z" fill="#1c3154"/><path d="m2120 1308.61h50v100h-50z" fill="#e67b48"/><path d="m2120 1298.61h50v10h-50z" fill="#1c3154"/></g><path d="m2930 1358.37v50.24h27.86c-5.95-11.17-12.06-22.3-18.33-33.39v-.3c-2.56-4.53-5.14-9.05-7.75-13.56-.59-1-1.19-2-1.78-2.99" fill="#e67b48" transform="matrix(.1 0 0 -.1 -141.863 147.539)"/><path d="m2969.7 1431.16h-.09c6.34 12.43 12.47 24.91 18.41 37.45h366.74 15.24v-29.53h-396.29c-1.33-2.65-2.66-5.29-4.01-7.92m404.37 7.92h-4.07v29.53c7.9 0 15.63-3.2 21.21-8.79 1.04-1.03 1.99-2.14 2.85-3.31-5.34-7.12-12.16-13.09-19.99-17.43" fill="#070b0e" transform="matrix(.1 0 0 -.1 -141.864 147.539)"/><path d="m3340 1308.61h-23.25c-.02 0-.03 0-.05 0h-106.7v100h-50v-100h-101.7v100h281.7z" fill="#bb2f22" transform="matrix(.1 0 0 -.1 -141.865 147.531)"/><path d="m3390.9 1280.7h-6.23c-8.07 7.73-17.43 14.24-27.84 19.05-12.16 5.61-25.81 8.86-40.08 8.86h23.25v100h-281.7v6.71h-96.78c2.76 5.27 5.49 10.55 8.18 15.84h373.68c11.13 0 21.59 2.87 30.69 7.92h16.83z" fill="#070c0f" transform="matrix(.1 0 0 -.1 -141.861 147.539)"/><path d="m2930 1308.61h-31.01c10.62 16.3 20.97 32.87 31.01 49.76z" fill="#bb2f22" transform="matrix(.1 0 0 -.1 -141.869 147.539)"/><path d="m3384.67 1280.7h-504.3c6.3 9.21 12.51 18.52 18.62 27.91h31.01v-10h120v5.84h8.3v4.16h101.7v-10h50v10h106.7.05c14.27 0 27.92-3.25 40.08-8.86 10.41-4.81 19.77-11.32 27.84-19.05" fill="#070c0f" transform="matrix(.1 0 0 -.1 -141.862 147.536)"/><path d="m2939.53 1308.61h-9.53v49.76c.59.99 1.19 1.99 1.78 2.99 2.61 4.51 5.19 9.03 7.75 13.56z" fill="#d04f2f" transform="matrix(.1 0 0 -.1 -141.867 147.536)"/><path d="m3050 1298.61h-120v10h9.53v-4.16h110.47z" fill="#0f1c2a" transform="matrix(.1 0 0 -.1 -141.87 147.531)"/><path d="m3343.38 1431.16h-373.68c1.35 2.63 2.68 5.27 4.01 7.92h396.29v-.47.47h4.07c-9.1-5.05-19.56-7.92-30.69-7.92" fill="#07090a" transform="matrix(.1 0 0 -.1 -141.869 147.532)"/><path d="m2957.98 1408.61h-.12c1.19 2.23 2.37 4.47 3.55 6.71h.11c-1.18-2.24-2.36-4.48-3.54-6.71" fill="#091019" transform="matrix(.1 0 0 -.1 -141.869 147.536)"/><path d="m2939.53 1374.92v.3c6.27 11.09 12.38 22.22 18.33 33.39h.12c-5.99-11.28-12.13-22.51-18.45-33.69" fill="#e67b48" transform="matrix(.1 0 0 -.1 -141.866 147.537)"/><path d="m3058.3 1308.61h-8.3v100h-92.02 100.32z" fill="#bb2f22" transform="matrix(.1 0 0 -.1 -141.864 147.531)"/><path d="m3058.3 1408.61h-100.32c1.18 2.23 2.36 4.47 3.54 6.71h96.78z" fill="#070c0f" transform="matrix(.1 0 0 -.1 -141.864 147.536)"/><path d="m3050 1304.45h8.3008v4.1602h-8.3008z" fill="#070c0f" transform="matrix(.1 0 0 -.1 -141.865 147.533)"/><path d="m3050 1308.61h-110.47v66.31c6.32 11.18 12.46 22.41 18.45 33.69h92.02z" fill="#d04f2f" transform="matrix(.1 0 0 -.1 -141.867 147.531)"/><path d="m2939.53 1304.45h110.469v4.1602h-110.469z" fill="#0f1c2a" transform="matrix(.1 0 0 -.1 -141.866 147.533)"/><path d="m3160 1308.61h50v100h-50z" fill="#d04f2f" transform="matrix(.1 0 0 -.1 -141.87 147.531)"/><path d="m3160 1298.61h50v10h-50z" fill="#0f1c2a" transform="matrix(.1 0 0 -.1 -141.87 147.531)"/></svg>
